X: 582
T: Mai yanzhi
L: 1/8
M: 2/4
K: F
F F F F [I:setbarnb 1]| 
d f d c | 
d f c A | 
G F G z | 
f dc2 | 
C DF2 | 
G G/ A/ F D | 
C4 |]

@@@ Tune index: 9456
